X: 10231
T: TULLOCHGORUM -- Strathspey
R: strathspey
B: K\"ohler's Violin Repository, v.1, 1885 p.23 #1
F: http://www.archive.org/details/klersviolinrepos01edin
Z: 2011 John Chambers <jc:trillian.mit.edu>
M: C|
L: 1/16
K: G
uc2 !segno!|\
BG3(d3G) (c=F3)A3c | BG3(d3G) (B3c) dg3 | (BG3) (d3G) (c3=F) A3c |\
[1 BG3 (d3G) (ABc2) A2 :|[2 BG3 (d3G) (ABc2) B2 ||
uA2 |\
Gg3 (d3e) =f3F A4 | Gg3 dg3 Gg3 dg3 | Gg3 (d3e) =fF3 A4 | Gg3 (dg3) (ABc2) B2A2 |
Gg3 (d3e) =f3F A4 | Gg3 (d3e) (f3g)a2g2 | (ag=fe) (f3d) cF3 A3a | g3d (g3b) (e3g) dg3 !segno!|]

%%sep 2 1 500

